!!!OTL: Graf und Nonne (Die Nonne) Ich stund auf hohen Bergen,
!!!ARE: Europa, Mitteleuropa, Schweiz, Kanton Wallis, Visp, Randa
!!!YOR: 8, S. 63
!!    ???? aufgezeichnet
!!!SCT: Q0155P
!!!YEM: Copyright 1995, estate of Helmut Schaffrath.
**kern
*ICvox
*Ivox
*M4/4
*k[f#c#]
*D:
{4a
=1
4d
8f#
8a
4d
4f#
=2
4e
4a
4g}
{4e
=3
4c#
8e
8g
4c#
4e
=4
4d
4a
4f#}
{4d
=5
4d
8d
8d
4d
4g
=6
2b
8dd
8cc#}
{4b
=7
4a
8a
8a
4g
4c#
=8
4d
2r}
==
!!!AGN: Ballade, Standesunterschied, vergebliche Werbung, Liebe, Klage
!!!ONB: ESAC (Essen Associative Code) Database: BALLADE
!!!AMT: simple quadruple
!!!AIN: vox
!!!EED: Helmut Schaffrath
!!!EEV: 1.0
*-
